public/logos/ansible.svg

<svg xmlns="http://www.w3.org/2000/svg" viewBox="0 0 508 508"><g fill="none"><path fill="#000" d="m508 254c0 140.3-113.7 254-254 254-140.3 0-254-113.7-254-254 0-140.3 113.7-254 254-254 140.3 0 254 113.7 254 254"/><path fill="#fff" d="m375.1 354.7l-101.1-243.3c-2.9-7-8.7-10.7-15.7-10.7-7 0-13.2 3.7-16.1 10.7l-111 266.9h38l43.9-110 131.1 105.9c5.3 4.3 9.1 6.2 14 6.2 9.9 0 18.6-7.4 18.6-18.1 0-1.8-.6-4.6-1.7-7.6m-116.8-199.5l65.7 162.2-99.3-78.2 33.6-84"/></g></svg>

<svg xmlns="http://www.w3.org/2000/svg" width="508" height="508" viewBox="0 0 508 508">
  <g fill="none">
    <path fill="#000" d="M508,254 C508,394.3 394.3,508 254,508 C113.7,508 0,394.3 0,254 C0,113.7 113.7,0 254,0 C394.3,0 508,113.7 508,254 Z"/>
    <path fill="#FFF" d="M375.1,354.7 L274,111.4 C271.1,104.4 265.3,100.7 258.3,100.7 C251.3,100.7 245.1,104.4 242.2,111.4 L131.2,378.3 L169.2,378.3 L213.1,268.3 L344.2,374.2 C349.5,378.5 353.3,380.4 358.2,380.4 C368.1,380.4 376.8,373 376.8,362.3 C376.8,360.5 376.2,357.7 375.1,354.7 Z M258.3,155.2 L324,317.4 L224.7,239.2 L258.3,155.2 Z"/>
  </g>
</svg>
